X:7
% %NRChange 2008-02-24
T: Dacie's House
C: Tom Moore
R:Waltz
O:USA
M: 3/4
L: 1/8
K: Gmaj
"G"B,4 "D"C2 | "G"D6 | "C"EG3 "D"F2 | "G"G4 A2 | B3 cd2 | "C"c4 B2 | "D7"A3 GA2 |
"Em"B4G2 | "G"B,4 "D"C2 | D6 | "C"EG3 "D"F2 | "G"G4 A2 | B3 dB2 | "D"A4 G2 | "C"E(GG4 | G4) A2 |
"G"B4 c2 | d6 | "Bm"d2 B2 A2 | "Em"G4 G2 | "Am"c4 B2 | "D"A3 GA2 | "G"B4 G2 | "C" E4 G2 | "D"D4 C2 |
"G"B,2 D4 | "C"E2 G2 "D"A2 | "G"B4 c2 | d3 c "D"B2 | "C"A4 G2 | E (G G4) | "G"G6 ||

